gama.ui.shared/icons_svg/light/experiment/experiment.simulations.add.svg

<svg height="25" viewBox="-346.774 -3215.705 25 25" width="25" xmlns="http://www.w3.org/2000/svg"><g fill="none"><path d="m-326.11414-3215.205h-16.32c-2.12076 0-3.84 1.719-3.84 3.84v16.32c0 2.1207 1.71924 3.84 3.84 3.84h16.32c2.12078 0 3.84-1.7193 3.84-3.84v-16.32c0-2.121-1.71922-3.84-3.84-3.84z" fill="#fff"/><path d="m-326.11414-3215.205h-16.32c-2.12076 0-3.84 1.719-3.84 3.84v16.32c0 2.1207 1.71924 3.84 3.84 3.84h16.32c2.12078 0 3.84-1.7193 3.84-3.84v-16.32c0-2.121-1.71922-3.84-3.84-3.84z" stroke="#000" stroke-linecap="round" stroke-linejoin="round" stroke-width=".25"/><path d="m-346.27414-3215.205h24v24h-24z"/><path d="m-324.4953-3208.798h-2.57142v2.5716h-.85714v-2.5716h-2.57141v-.857h2.57141v-2.5714h.85714v2.5714h2.57142z" fill="#cf7837"/><path d="m-324.4953-3208.798h-2.57142v2.5716h-.85714v-2.5716h-2.57141v-.857h2.57141v-2.5714h.85714v2.5714h2.57142z" stroke="#cf7839" stroke-linecap="round" stroke-linejoin="round" stroke-width=".25"/><path d="m-337.3349-3201.9094c-2.97424-.3586-4.59436-3.7449-2.92693-6.2556 2.3855-3.5944 7.8262-1.537 7.49503 2.84-.13037 1.7324-1.37095 2.6934-1.68005 4.26-.72438 3.668 3.86579 5.43 5.91801 2.4232 1.39514-2.0449-.06833-4.9172-2.52426-5.0938-.31647-.022-.87368.142-.97145-.2691-.1104-.4636.40581-.492.72647-.491 3.05521.0127 5.04645 3.3137 3.59875 6-2.05747 3.8197-7.92397 2.2487-7.56441-2.2003.18819-2.3267 2.41704-3.54 1.61591-6.122-.89154-2.8703-4.60697-3.337-6.08623-.735-1.16909 2.0564.21343 4.6564 2.55896 4.897-.1682-.3447-.51725-.6517-.69808-.9797-.22288-.4037.25653-.8473.64868-.4173.42685.469.7738 1.0954 1.2143 1.5675.10934.1975.05677.4037-.0652.5825-.56666.327-1.13123.9777-1.68634 1.2805-.31856.1735-.71912-.1115-.5488-.4668.11774-.246.96934-.757.97774-.8201z" fill="#5c76a1"/></g></svg>

<?xml version="1.0" encoding="UTF-8" standalone="no"?>
<!DOCTYPE svg PUBLIC "-//W3C//DTD SVG 1.1//EN" "http://www.w3.org/Graphics/SVG/1.1/DTD/svg11.dtd">
<svg xmlns:dc="http://purl.org/dc/elements/1.1/" xmlns:xl="http://www.w3.org/1999/xlink" version="1.1" xmlns="http://www.w3.org/2000/svg" viewBox="-346.77414 -3215.705 25 25" width="25" height="25">
  <defs/>
  <g id="SOURCES" stroke-dasharray="none" stroke="none" stroke-opacity="1" fill="none" fill-opacity="1">
    <title>SOURCES</title>
    <g id="SOURCES_New">
      <title>New</title>
      <g id="Group_10435">
        <g id="Group_6694">
          <g id="Graphic_6696">
            <path d="M -326.11414 -3215.205 L -342.43414 -3215.205 C -344.5549 -3215.205 -346.27414 -3213.486 -346.27414 -3211.365 L -346.27414 -3195.045 C -346.27414 -3192.9243 -344.5549 -3191.205 -342.43414 -3191.205 L -326.11414 -3191.205 C -323.99336 -3191.205 -322.27414 -3192.9243 -322.27414 -3195.045 L -322.27414 -3211.365 C -322.27414 -3213.486 -323.99336 -3215.205 -326.11414 -3215.205 Z" fill="white"/>
            <path d="M -326.11414 -3215.205 L -342.43414 -3215.205 C -344.5549 -3215.205 -346.27414 -3213.486 -346.27414 -3211.365 L -346.27414 -3195.045 C -346.27414 -3192.9243 -344.5549 -3191.205 -342.43414 -3191.205 L -326.11414 -3191.205 C -323.99336 -3191.205 -322.27414 -3192.9243 -322.27414 -3195.045 L -322.27414 -3211.365 C -322.27414 -3213.486 -323.99336 -3215.205 -326.11414 -3215.205 Z" stroke="black" stroke-linecap="round" stroke-linejoin="round" stroke-width=".25"/>
          </g>
          <g id="Graphic_6695">
            <rect x="-346.27414" y="-3215.205" width="24" height="24" stroke="gray" stroke-opacity="0" stroke-linecap="round" stroke-linejoin="round" stroke-width=".25"/>
          </g>
        </g>
        <g id="Graphic_6691">
          <path d="M -324.4953 -3208.798 L -327.06672 -3208.798 L -327.06672 -3206.2264 L -327.92386 -3206.2264 L -327.92386 -3208.798 L -330.49527 -3208.798 L -330.49527 -3209.655 L -327.92386 -3209.655 L -327.92386 -3212.2264 L -327.06672 -3212.2264 L -327.06672 -3209.655 L -324.4953 -3209.655 L -324.4953 -3208.798 Z" fill="#cf7837"/>
          <path d="M -324.4953 -3208.798 L -327.06672 -3208.798 L -327.06672 -3206.2264 L -327.92386 -3206.2264 L -327.92386 -3208.798 L -330.49527 -3208.798 L -330.49527 -3209.655 L -327.92386 -3209.655 L -327.92386 -3212.2264 L -327.06672 -3212.2264 L -327.06672 -3209.655 L -324.4953 -3209.655 L -324.4953 -3208.798 Z" stroke="#cf7839" stroke-linecap="round" stroke-linejoin="round" stroke-width=".25"/>
        </g>
        <g id="Graphic_10010">
          <path d="M -337.3349 -3201.9094 C -340.30914 -3202.268 -341.92926 -3205.6543 -340.26183 -3208.165 C -337.87633 -3211.7594 -332.43563 -3209.702 -332.7668 -3205.325 C -332.89717 -3203.5926 -334.13775 -3202.6316 -334.44685 -3201.065 C -335.17123 -3197.397 -330.58106 -3195.635 -328.52884 -3198.6418 C -327.1337 -3200.6867 -328.59717 -3203.559 -331.0531 -3203.7356 C -331.36957 -3203.7576 -331.92678 -3203.5936 -332.02455 -3204.0047 C -332.13495 -3204.4683 -331.61874 -3204.4967 -331.29808 -3204.4957 C -328.24287 -3204.483 -326.25163 -3201.182 -327.69933 -3198.4957 C -329.7568 -3194.676 -335.6233 -3196.247 -335.26374 -3200.696 C -335.07555 -3203.0227 -332.8467 -3204.236 -333.64783 -3206.818 C -334.53937 -3209.6883 -338.2548 -3210.155 -339.73406 -3207.553 C -340.90315 -3205.4966 -339.52063 -3202.8966 -337.1751 -3202.656 C -337.3433 -3203.0007 -337.69235 -3203.3077 -337.87318 -3203.6357 C -338.09606 -3204.0394 -337.61665 -3204.483 -337.2245 -3204.053 C -336.79765 -3203.584 -336.4507 -3202.9576 -336.0102 -3202.4855 C -335.90086 -3202.288 -335.95343 -3202.0818 -336.0754 -3201.903 C -336.64206 -3201.576 -337.20663 -3200.9253 -337.76174 -3200.6225 C -338.0803 -3200.449 -338.48086 -3200.734 -338.31054 -3201.0893 C -338.1928 -3201.3353 -337.3412 -3201.8463 -337.3328 -3201.9094 Z" fill="#5c76a1"/>
        </g>
      </g>
    </g>
  </g>
</svg>
